images/people/people-26.svg

<?xml version="1.0" standalone="no"?><!DOCTYPE svg PUBLIC "-//W3C//DTD SVG 1.1//EN" "http://www.w3.org/Graphics/SVG/1.1/DTD/svg11.dtd"><svg width="120px" height="192px" version="1.1" xmlns="http://www.w3.org/2000/svg" xmlns:xlink="http://www.w3.org/1999/xlink" xml:space="preserve" style="fill-rule:evenodd;clip-rule:evenodd;stroke-linejoin:round;stroke-miterlimit:1.41421;"><g><g id="people-26" transform="matrix(1,0,0,1,-853.137,-48)"><g transform="matrix(1,0,0,1,0,-12)"><path d="M883.206,168.33l-1.037,5.519l1.428,7.046l2.572,-1.444l-0.736,-6.06l0.17,1.837l2.392,-0.594l-2.019,-4.489l-2.77,-1.815Z" style="fill:#e1c5b5;fill-rule:nonzero;"/></g><g transform="matrix(1,0,0,1,0,-12)"><path d="M890.937,138.75l4.798,-1.888l10.425,-0.406l-1.975,-8.332l-12.688,-0.233l-0.56,10.859Z" style="fill:#543e36;fill-rule:nonzero;"/></g><g transform="matrix(1,0,0,1,0,-12)"><path d="M904.649,232.034l0.853,6.195l-6.039,-0.155l-0.465,-6.658l5.651,0.618Z" style="fill:#2a2b2a;fill-rule:nonzero;"/></g><g transform="matrix(1,0,0,1,0,-12)"><path d="M894.857,240.358l-1.24,8.167l0.697,1.975l4.761,0l1.219,-9.001l-5.437,-1.141Z" style="fill:#2a2b2a;fill-rule:nonzero;"/></g><g transform="matrix(1,0,0,1,0,-12)"><path d="M891.876,136.805l2.554,-1.703l1.857,-5.265l4.292,1.223l1.361,3.346l2.942,1.47l-1.858,6.116l-8.748,0.233l-2.4,-5.42Z" style="fill:#ceab97;fill-rule:nonzero;"/></g><g transform="matrix(1,0,0,1,0,-12)"><path d="M896.197,133.589l3.864,0l4.162,-5.351l-0.744,-11.446l-7.423,-1.24l-4.614,1.835l0.149,10.851l4.606,5.351Z" style="fill:#e1c5b5;fill-rule:nonzero;"/></g><g transform="matrix(1,0,0,1,0,-12)"><path d="M890.29,144.798l-4.264,25.759l-3.05,-1.145l3.803,-29.065l3.511,4.451Z" style="fill:#e1c5b5;fill-rule:nonzero;"/></g><g transform="matrix(1,0,0,1,0,-12)"><path d="M897.313,112.167l8.583,2.708l4.707,23.208l-4.851,5.167l0.059,-5.574l-0.31,-1.646l-1.491,-7.529l-1.864,-9.501l-5.103,-2.083l0.27,-4.75Z" style="fill:#543e36;fill-rule:nonzero;"/></g><g transform="matrix(1,0,0,1,0,-12)"><path d="M897.13,116.917l-5.022,1.887l-0.588,22.196l-4.248,-0.749l0.832,-23.918l9.334,-4.25l-0.308,4.834Z" style="fill:#543e36;fill-rule:nonzero;"/></g><g transform="matrix(1,0,0,1,0,-12)"><path d="M899.154,194.562l0.929,46.917l-5.188,-1.083l-4.568,-45.989" style="fill:#e1c5b5;fill-rule:nonzero;"/></g><g transform="matrix(1,0,0,1,0,-12)"><path d="M898.998,177.994l0.156,19.819l0.736,33.835l4.759,0.386l2.324,-34.433l-7.975,-19.607Z" style="fill:#ceab97;fill-rule:nonzero;"/></g><g transform="matrix(1,0,0,1,0,-12)"><path d="M910.612,138.198l-5.701,-2.352l-2.274,5.603l-8.052,0.233l-2.709,-4.994l-5.189,3.563l3.485,4.605l0.433,14.394l-7.208,48.158l29.847,0.232l-6.889,-47.89l1.314,-17.371l2.943,-4.181Z" style="fill:#5c5e5f;fill-rule:nonzero;"/></g><g transform="matrix(1,0,0,1,0,-12)"><path d="M907.709,142.344l1.214,27.267l3.288,-0.238l-1.564,-31.123l-2.938,4.094Z" style="fill:#e1c5b5;fill-rule:nonzero;"/></g><g transform="matrix(1,0,0,1,0,-12)"><path d="M912.221,169.277l0.295,4.335l-2.928,6.144l-2.4,-1.423l2.129,-5.506l-0.358,1.809l-2.021,-1.636l2.037,-3.326l3.246,-0.397Z" style="fill:#e1c5b5;fill-rule:nonzero;"/></g><g transform="matrix(1,0,0,1,0,-12)"><path d="M932.234,165.318l-2.735,-2.53l2.922,-2.17l2.663,4.694l-2.85,0.006Z" style="fill:#ae2025;fill-rule:nonzero;"/></g><g transform="matrix(1,0,0,1,0,-12)"><path d="M938.691,168.434l-3.659,-3.137l-6.341,-0.03l-4.583,4.53l1.123,14.698l3.003,-0.383l0.381,-0.702l2.059,-0.839l3.68,0.533l1.989,1.085l2.541,-0.153l-0.193,-15.602Z" style="fill:#2a2b2a;fill-rule:nonzero;"/></g><g transform="matrix(1,0,0,1,0,-12)"><path d="M927.721,180.863l1.684,-1.122l1.224,-3.468l2.826,0.806l0.897,2.203l1.937,0.969l0.517,10.869l-4.735,7.82l-4.35,-18.077Z" style="fill:#ceab97;fill-rule:nonzero;"/></g><g transform="matrix(1,0,0,1,0,-12)"><path d="M930.568,178.745l2.546,0l2.742,-3.525l-1.168,-7.298l-4.213,-0.021l-3.039,3.255l0.098,4.064l3.034,3.525Z" style="fill:#e1c5b5;fill-rule:nonzero;"/></g><g transform="matrix(1,0,0,1,0,-12)"><path d="M935.079,170.812l1.792,0.011l0.133,2.92l-1.71,-0.089l-0.215,-2.842Z" style="fill:#e1c5b5;fill-rule:nonzero;"/></g><g transform="matrix(1,0,0,1,0,-12)"><path d="M927.695,171.192l-1.616,0.011l0.062,2.968l1.492,-0.011l0.062,-2.968Z" style="fill:#e1c5b5;fill-rule:nonzero;"/></g><g transform="matrix(1,0,0,1,0,-12)"><path d="M928.302,238.081l-0.596,4.334l4.224,-0.108l0.326,-4.659l-3.954,0.433Z" style="fill:#2a2b2a;fill-rule:nonzero;"/></g><g transform="matrix(1,0,0,1,0,-12)"><path d="M935.153,243.904l0.867,5.714l-0.488,1.382l-3.331,0l-0.853,-6.297l3.805,-0.799Z" style="fill:#2a2b2a;fill-rule:nonzero;"/></g><g transform="matrix(1,0,0,1,0,-12)"><path d="M943.372,203.63l0.733,3.904l-1.009,4.987l-1.821,-1.022l0.521,-4.289l-0.121,1.301l-1.692,-0.421l1.428,-3.176l1.961,-1.284Z" style="fill:#e1c5b5;fill-rule:nonzero;"/></g><g transform="matrix(1,0,0,1,0,-12)"><path d="M938.359,186.98l3.017,18.226l2.158,-0.81l-2.691,-20.565l-2.484,3.149Z" style="fill:#e1c5b5;fill-rule:nonzero;"/></g><g transform="matrix(1,0,0,1,0,-12)"><path d="M921.218,202.255l-0.733,3.904l1.009,4.987l1.821,-1.022l-0.521,-4.289l0.121,1.301l1.692,-0.421l-1.428,-3.176l-1.961,-1.284Z" style="fill:#e1c5b5;fill-rule:nonzero;"/></g><g transform="matrix(1,0,0,1,0,-12)"><path d="M926.231,185.605l-3.017,18.226l-2.158,-0.81l2.691,-20.565l2.484,3.149Z" style="fill:#e1c5b5;fill-rule:nonzero;"/></g><g transform="matrix(1,0,0,1,0,-12)"><path d="M932.146,211.865l-0.649,32.824l3.628,-0.758l3.197,-32.175" style="fill:#e1c5b5;fill-rule:nonzero;"/></g><g transform="matrix(1,0,0,1,0,-12)"><path d="M932.256,200.273l-0.109,13.866l-0.515,23.671l-3.33,0.271l-1.625,-24.09l5.579,-13.718Z" style="fill:#ceab97;fill-rule:nonzero;"/></g><g transform="matrix(1,0,0,1,0,-12)"><path d="M923.775,182.403l4.054,-1.673l1.616,3.984l5.54,-0.027l1.187,-4.437l4.613,3.612l-2.478,3.273l-1.308,10.234l3.122,32.098l-16.214,0.165l3.896,-31.909l-1.935,-12.348l-2.093,-2.972Z" style="fill:#ae2025;fill-rule:nonzero;"/></g><g transform="matrix(1,0,0,1,0,-12)"><path d="M937.112,167.124l3.793,-0.242l-0.876,-3.534l-5.039,1.933" style="fill:#ae2025;fill-rule:nonzero;"/></g></g></g></svg>

<?xml version="1.0" encoding="UTF-8" standalone="no"?>
<!DOCTYPE svg PUBLIC "-//W3C//DTD SVG 1.1//EN" "http://www.w3.org/Graphics/SVG/1.1/DTD/svg11.dtd">
<svg width="100%" height="100%" viewBox="0 0 140 220" version="1.1" xmlns="http://www.w3.org/2000/svg" xmlns:xlink="http://www.w3.org/1999/xlink" xml:space="preserve" xmlns:serif="http://www.serif.com/" style="fill-rule:evenodd;clip-rule:evenodd;stroke-linejoin:round;stroke-miterlimit:2;">
    <g id="people-26" transform="matrix(1.27,0,0,1.27,-1089.68,-84.8)">
        <g transform="matrix(1,0,0,1,0,-12)">
            <path d="M883.206,168.33L882.169,173.849L883.597,180.895L886.169,179.451L885.433,173.391L885.603,175.228L887.995,174.634L885.976,170.145L883.206,168.33Z" style="fill:rgb(225,197,181);fill-rule:nonzero;"/>
        </g>
        <g transform="matrix(1,0,0,1,0,-12)">
            <path d="M890.937,138.75L895.735,136.862L906.16,136.456L904.185,128.124L891.497,127.891L890.937,138.75Z" style="fill:rgb(84,62,54);fill-rule:nonzero;"/>
        </g>
        <g transform="matrix(1,0,0,1,0,-12)">
            <path d="M904.649,232.034L905.502,238.229L899.463,238.074L898.998,231.416L904.649,232.034Z" style="fill:rgb(42,43,42);fill-rule:nonzero;"/>
        </g>
        <g transform="matrix(1,0,0,1,0,-12)">
            <path d="M894.857,240.358L893.617,248.525L894.314,250.5L899.075,250.5L900.294,241.499L894.857,240.358Z" style="fill:rgb(42,43,42);fill-rule:nonzero;"/>
        </g>
        <g transform="matrix(1,0,0,1,0,-12)">
            <path d="M891.876,136.805L894.43,135.102L896.287,129.837L900.579,131.06L901.94,134.406L904.882,135.876L903.024,141.992L894.276,142.225L891.876,136.805Z" style="fill:rgb(206,171,151);fill-rule:nonzero;"/>
        </g>
        <g transform="matrix(1,0,0,1,0,-12)">
            <path d="M896.197,133.589L900.061,133.589L904.223,128.238L903.479,116.792L896.056,115.552L891.442,117.387L891.591,128.238L896.197,133.589Z" style="fill:rgb(225,197,181);fill-rule:nonzero;"/>
        </g>
        <g transform="matrix(1,0,0,1,0,-12)">
            <path d="M890.29,144.798L886.026,170.557L882.976,169.412L886.779,140.347L890.29,144.798Z" style="fill:rgb(225,197,181);fill-rule:nonzero;"/>
        </g>
        <g transform="matrix(1,0,0,1,0,-12)">
            <path d="M897.314,112.167L905.896,114.875L910.603,138.083L905.752,143.25L905.812,137.676L905.502,136.03L904.011,128.501L902.146,119L897.044,116.917L897.314,112.167Z" style="fill:rgb(84,62,54);fill-rule:nonzero;"/>
        </g>
        <g transform="matrix(1,0,0,1,0,-12)">
            <path d="M897.13,116.917L892.108,118.804L891.52,141L887.272,140.251L888.104,116.333L897.438,112.083L897.13,116.917Z" style="fill:rgb(84,62,54);fill-rule:nonzero;"/>
        </g>
        <g transform="matrix(1,0,0,1,0,-12)">
            <path d="M899.154,194.563L900.083,241.48L894.895,240.397L890.327,194.408" style="fill:rgb(225,197,181);fill-rule:nonzero;"/>
        </g>
        <g transform="matrix(1,0,0,1,0,-12)">
            <path d="M898.998,177.994L899.154,197.813L899.89,231.648L904.649,232.034L906.973,197.601L898.998,177.994Z" style="fill:rgb(206,171,151);fill-rule:nonzero;"/>
        </g>
        <g transform="matrix(1,0,0,1,0,-12)">
            <path d="M910.612,138.198L904.911,135.846L902.637,141.449L894.585,141.682L891.876,136.688L886.687,140.251L890.172,144.856L890.605,159.25L883.397,207.408L913.244,207.64L906.355,159.75L907.669,142.379L910.612,138.198Z" style="fill:rgb(92,94,95);fill-rule:nonzero;"/>
        </g>
        <g transform="matrix(1,0,0,1,0,-12)">
            <path d="M907.709,142.344L908.923,169.611L912.211,169.373L910.647,138.25L907.709,142.344Z" style="fill:rgb(225,197,181);fill-rule:nonzero;"/>
        </g>
        <g transform="matrix(1,0,0,1,0,-12)">
            <path d="M912.221,169.277L912.516,173.612L909.588,179.756L907.188,178.333L909.317,172.827L908.959,174.636L906.938,173L908.975,169.674L912.221,169.277Z" style="fill:rgb(225,197,181);fill-rule:nonzero;"/>
        </g>
        <g transform="matrix(1,0,0,1,0,-12)">
            <path d="M932.234,165.318L929.499,162.788L932.421,160.618L935.084,165.312L932.234,165.318Z" style="fill:rgb(174,32,37);fill-rule:nonzero;"/>
        </g>
        <g transform="matrix(1,0,0,1,0,-12)">
            <path d="M938.691,168.434L935.032,165.297L928.691,165.267L924.108,169.797L925.231,184.495L928.234,184.112L928.615,183.41L930.674,182.571L934.354,183.104L936.343,184.189L938.884,184.036L938.691,168.434Z" style="fill:rgb(42,43,42);fill-rule:nonzero;"/>
        </g>
        <g transform="matrix(1,0,0,1,0,-12)">
            <path d="M927.721,180.863L929.405,179.741L930.629,176.273L933.455,177.079L934.352,179.282L936.289,180.251L936.806,191.12L932.071,198.94L927.721,180.863Z" style="fill:rgb(206,171,151);fill-rule:nonzero;"/>
        </g>
        <g transform="matrix(1,0,0,1,0,-12)">
            <path d="M930.568,178.745L933.114,178.745L935.856,175.22L934.688,167.922L930.475,167.901L927.436,171.156L927.534,175.22L930.568,178.745Z" style="fill:rgb(225,197,181);fill-rule:nonzero;"/>
        </g>
        <g transform="matrix(1,0,0,1,0,-12)">
            <path d="M935.079,170.813L936.871,170.824L937.004,173.744L935.294,173.655L935.079,170.813Z" style="fill:rgb(225,197,181);fill-rule:nonzero;"/>
        </g>
        <g transform="matrix(1,0,0,1,0,-12)">
            <path d="M927.695,171.192L926.079,171.203L926.141,174.171L927.633,174.16L927.695,171.192Z" style="fill:rgb(225,197,181);fill-rule:nonzero;"/>
        </g>
        <g transform="matrix(1,0,0,1,0,-12)">
            <path d="M928.302,238.081L927.706,242.415L931.93,242.307L932.256,237.648L928.302,238.081Z" style="fill:rgb(42,43,42);fill-rule:nonzero;"/>
        </g>
        <g transform="matrix(1,0,0,1,0,-12)">
            <path d="M935.153,243.904L936.02,249.618L935.532,251L932.201,251L931.348,244.703L935.153,243.904Z" style="fill:rgb(42,43,42);fill-rule:nonzero;"/>
        </g>
        <g transform="matrix(1,0,0,1,0,-12)">
            <path d="M943.372,203.63L944.105,207.534L943.096,212.521L941.275,211.499L941.796,207.21L941.675,208.511L939.983,208.09L941.411,204.914L943.372,203.63Z" style="fill:rgb(225,197,181);fill-rule:nonzero;"/>
        </g>
        <g transform="matrix(1,0,0,1,0,-12)">
            <path d="M938.359,186.98L941.376,205.206L943.534,204.396L940.843,183.831L938.359,186.98Z" style="fill:rgb(225,197,181);fill-rule:nonzero;"/>
        </g>
        <g transform="matrix(1,0,0,1,0,-12)">
            <path d="M921.218,202.255L920.485,206.159L921.494,211.146L923.315,210.124L922.794,205.835L922.915,207.136L924.607,206.715L923.179,203.539L921.218,202.255Z" style="fill:rgb(225,197,181);fill-rule:nonzero;"/>
        </g>
        <g transform="matrix(1,0,0,1,0,-12)">
            <path d="M926.231,185.605L923.213,203.831L921.056,203.021L923.747,182.456L926.231,185.605Z" style="fill:rgb(225,197,181);fill-rule:nonzero;"/>
        </g>
        <g transform="matrix(1,0,0,1,0,-12)">
            <path d="M932.146,211.865L931.497,244.689L935.126,243.931L938.323,211.756" style="fill:rgb(225,197,181);fill-rule:nonzero;"/>
        </g>
        <g transform="matrix(1,0,0,1,0,-12)">
            <path d="M932.256,200.273L932.147,214.139L931.632,237.81L928.302,238.081L926.677,213.991L932.256,200.273Z" style="fill:rgb(206,171,151);fill-rule:nonzero;"/>
        </g>
        <g transform="matrix(1,0,0,1,0,-12)">
            <path d="M923.775,182.403L927.829,180.73L929.445,184.714L934.985,184.687L936.172,180.25L940.785,183.862L938.307,187.135L936.999,197.369L940.121,229.467L923.907,229.632L927.803,197.723L925.868,185.375L923.775,182.403Z" style="fill:rgb(174,32,37);fill-rule:nonzero;"/>
        </g>
        <g transform="matrix(1,0,0,1,0,-12)">
            <path d="M937.112,167.124L940.905,166.882L940.029,163.348L934.99,165.281" style="fill:rgb(174,32,37);fill-rule:nonzero;"/>
        </g>
    </g>
</svg>
